; generated by PrusaSlicer 2.3.0 on 2021-04-19 at 00:55:48 UTC

; 

; external perimeters extrusion width = 0.45mm
; perimeters extrusion width = 0.45mm
; infill extrusion width = 0.45mm
; solid infill extrusion width = 0.45mm
; top infill extrusion width = 0.40mm
; first layer extrusion width = 0.70mm

M107
M104 S200 ; set temperature
;TYPE:Custom
G28 ; home all axes
G1 Z5 F5000 ; lift nozzle
M109 S200 ; set temperature and wait for it to be reached
G21 ; set units to millimeters
G90 ; use absolute coordinates
M82 ; use absolute distances for extrusion
G92 E0
; Filament gcode
;LAYER_CHANGE
;Z:0.35
;HEIGHT:0.35
G1 Z0.350 F7800.000
G1 E-2.00000 F2400.000
G92 E0
G1 X76.641 Y93.679 F7800.000
G1 E2.00000 F2400.000
;TYPE:Skirt
;WIDTH:0.7
G1 F1800.000
G1 X78.050 Y92.898 E2.14650
G1 X79.600 Y92.481 E2.29243
G1 X80.512 Y92.414 E2.37562
G1 X100.541 Y92.414 E4.19683
G1 X101.680 Y92.514 E4.30077
G1 X102.778 Y92.806 E4.40415
G1 X103.817 Y93.285 E4.50809
G1 X104.752 Y93.930 E4.61147
G1 X105.564 Y94.727 E4.71484
G1 X106.227 Y95.650 E4.81821
G1 X106.725 Y96.679 E4.92216
G1 X107.037 Y97.772 E5.02553
G1 X107.159 Y99.004 E5.13812
G1 X107.158 Y120.186 E7.06412
G1 X106.971 Y121.608 E7.19454
G1 X106.483 Y122.956 E7.32496
G1 X105.977 Y123.816 E7.41565
G1 X105.349 Y124.590 E7.50635
G1 X97.665 Y132.277 E8.49465
G1 X96.660 Y133.084 E8.61184
G1 X95.518 Y133.681 E8.72903
G1 X94.425 Y134.017 E8.83298
G1 X93.297 Y134.159 E8.93635
G1 X83.241 Y134.164 E9.85069
G1 X81.787 Y133.983 E9.98399
G1 X80.407 Y133.487 E10.11728
G1 X79.500 Y132.949 E10.21316
G1 X78.690 Y132.274 E10.30904
G1 X77.994 Y131.474 E10.40550
G1 X77.437 Y130.578 E10.50138
G1 X74.306 Y122.295 E11.30662
G1 X73.989 Y121.059 E11.42266
G1 X73.910 Y120.065 E11.51335
G1 X73.912 Y98.880 E13.43963
G1 X74.100 Y97.465 E13.56947
G1 X74.586 Y96.122 E13.69931
G1 X75.462 Y94.778 E13.84524
G1 X76.597 Y93.720 E13.98629
G1 E11.98629 F2400.000
G92 E0
G1 X82.334 Y112.839 F7800.000
G1 E2.00000 F2400.000
;TYPE:Perimeter
G1 F1800.000
G1 X86.735 Y112.839 E2.40013
G1 X86.735 Y117.839 E2.85478
G1 X94.334 Y117.839 E3.54580
G1 X94.334 Y112.839 E4.00045
G1 X98.735 Y112.839 E4.40058
G1 X98.735 Y118.240 E4.89164
G1 X91.235 Y118.240 E5.57361
G1 X91.235 Y125.740 E6.25559
G1 X85.124 Y125.740 E6.81125
G1 X85.124 Y124.339 E6.93860
G1 X89.834 Y124.339 E7.36692
G1 X89.834 Y118.240 E7.92155
G1 X82.334 Y118.240 E8.60352
G1 X82.334 Y112.899 E9.08913
G1 E7.08913 F2400.000
G92 E0
G1 X87.360 Y117.214 F7800.000
G1 E2.00000 F2400.000
G1 F1800.000
G1 X93.709 Y117.214 E2.57738
G1 X93.709 Y112.214 E3.03203
G1 X99.360 Y112.214 E3.54580
G1 X99.360 Y118.864 E4.15050
G1 X91.860 Y118.864 E4.83248
G1 X91.860 Y126.364 E5.51445
G1 X84.499 Y126.364 E6.18376
G1 X84.499 Y123.714 E6.42474
G1 X89.209 Y123.714 E6.85307
G1 X89.209 Y118.864 E7.29406
G1 X81.709 Y118.864 E7.97603
G1 X81.709 Y112.214 E8.58073
G1 X87.360 Y112.214 E9.09450
G1 X87.360 Y117.154 E9.54370
G1 X87.985 Y116.589 F7800.000
;TYPE:External perimeter
G1 F1800.000
G1 X93.085 Y116.589 E10.00744
G1 X93.085 Y111.589 E10.46208
G1 X99.985 Y111.589 E11.08950
G1 X99.985 Y119.489 E11.80784
G1 X92.485 Y119.489 E12.48981
G1 X92.485 Y126.989 E13.17179
G1 X83.874 Y126.989 E13.95474
G1 X83.874 Y123.089 E14.30936
G1 X88.585 Y123.089 E14.73769
G1 X88.585 Y119.489 E15.06504
G1 X81.085 Y119.489 E15.74701
G1 X81.085 Y111.589 E16.46535
G1 X87.985 Y111.589 E17.09277
G1 X87.985 Y116.529 E17.54196
G1 X88.108 Y116.970 F7800.000
G1 E15.54196 F2400.000
G92 E0
G1 X90.535 Y118.152 F7800.000
G1 E2.00000 F2400.000
;TYPE:Gap fill
;WIDTH:0.850667
G1 F1800.000
G1 X90.535 Y124.652 E2.73355
G1 X90.490 Y124.866 E2.75823
;WIDTH:0.983732
G1 X90.468 Y124.973 E2.77269
;WIDTH:0.983731
G1 X90.361 Y124.995 E2.78715
;WIDTH:0.939376
G1 X90.254 Y125.017 E2.80090
;WIDTH:0.895021
G1 X90.147 Y125.039 E2.81395
;WIDTH:0.850667
G1 X85.436 Y125.039 E3.34555
G1 E1.34555 F2400.000
G92 E0
G1 X85.233 Y113.027 F7800.000
G1 E2.00000 F2400.000
;TYPE:Solid infill
;WIDTH:0.723957
G1 F1800.000
G1 X86.266 Y114.059 E2.13790
G1 X86.266 Y114.977 E2.22454
G1 X84.597 Y113.308 E2.44742
G1 X83.679 Y113.308 E2.53405
G1 X86.266 Y115.895 E2.87945
G1 X86.266 Y116.812 E2.96609
G1 X82.803 Y113.349 E3.42850
G1 X82.803 Y114.267 E3.51514
G1 X86.266 Y117.730 E3.97755
G1 X86.266 Y117.771 E3.98144
G1 X85.390 Y117.771 E4.06419
G1 X82.803 Y115.184 E4.40957
G1 X82.803 Y116.102 E4.49621
G1 X84.472 Y117.771 E4.71907
G1 X83.554 Y117.771 E4.80571
G1 X82.522 Y116.738 E4.94359
G1 E2.94359 F2400.000
G92 E0
G1 X98.547 Y114.341 F7800.000
G1 E2.00000 F2400.000
G1 F1800.000
G1 X97.515 Y113.308 E2.13790
G1 X96.597 Y113.308 E2.22454
G1 X98.266 Y114.977 E2.44742
G1 X98.266 Y115.895 E2.53405
G1 X95.679 Y113.308 E2.87945
G1 X94.803 Y113.308 E2.96219
G1 X94.803 Y113.349 E2.96609
G1 X98.266 Y116.812 E3.42850
G1 X98.266 Y117.730 E3.51514
G1 X94.803 Y114.267 E3.97755
G1 X94.803 Y115.184 E4.06419
G1 X97.390 Y117.771 E4.40957
G1 X96.472 Y117.771 E4.49621
G1 X94.803 Y116.102 E4.71907
G1 X94.803 Y117.019 E4.80571
G1 X95.836 Y118.052 E4.94359
G1 E2.94359 F2400.000
G92 E0
G1 X86.735 Y106.240 F7800.000
G1 E2.00000 F2400.000
;TYPE:Perimeter
;WIDTH:0.7
G1 F1800.000
G1 X82.334 Y106.240 E2.40013
G1 X82.334 Y100.839 E2.89119
G1 X86.735 Y100.839 E3.29132
G1 X86.735 Y106.180 E3.77693
G1 X87.360 Y106.864 F7800.000
G1 F1800.000
G1 X81.709 Y106.864 E4.29070
G1 X81.709 Y100.214 E4.89540
G1 X87.360 Y100.214 E5.40917
G1 X87.360 Y106.804 E6.00842
G1 X87.985 Y107.489 F7800.000
;TYPE:External perimeter
G1 F1800.000
G1 X81.085 Y107.489 E6.63583
G1 X81.085 Y99.589 E7.35418
G1 X87.985 Y99.589 E7.98159
G1 X87.985 Y107.429 E8.69448
G1 X87.601 Y107.377 F7800.000
G1 E6.69448 F2400.000
G92 E0
G1 X86.547 Y102.341 F7800.000
G1 E2.00000 F2400.000
;TYPE:Solid infill
;WIDTH:0.723957
G1 F1800.000
G1 X85.515 Y101.308 E2.13790
G1 X84.597 Y101.308 E2.22454
G1 X86.266 Y102.977 E2.44742
G1 X86.266 Y103.895 E2.53405
G1 X83.679 Y101.308 E2.87945
G1 X82.803 Y101.308 E2.96219
G1 X82.803 Y101.349 E2.96609
G1 X86.266 Y104.812 E3.42850
G1 X86.266 Y105.730 E3.51514
G1 X82.803 Y102.267 E3.97755
G1 X82.803 Y103.184 E4.06419
G1 X85.390 Y105.771 E4.40957
G1 X84.472 Y105.771 E4.49621
G1 X82.803 Y104.102 E4.71907
G1 X82.803 Y105.019 E4.80571
G1 X83.836 Y106.052 E4.94359
G1 E2.94359 F2400.000
G92 E0
G1 X94.334 Y106.052 F7800.000
G1 E2.00000 F2400.000
;TYPE:Perimeter
;WIDTH:0.7
G1 F1800.000
G1 X94.334 Y100.839 E2.47402
G1 X98.735 Y100.839 E2.87415
G1 X98.735 Y106.240 E3.36521
G1 X94.334 Y106.240 E3.76534
G1 X94.334 Y106.112 E3.77693
G1 X93.709 Y106.864 F7800.000
G1 F1800.000
G1 X93.709 Y100.214 E4.38163
G1 X99.360 Y100.214 E4.89540
G1 X99.360 Y106.864 E5.50010
G1 X93.769 Y106.864 E6.00842
G1 X93.085 Y107.489 F7800.000
;TYPE:External perimeter
G1 F1800.000
G1 X93.085 Y99.589 E6.72676
G1 X99.985 Y99.589 E7.35418
G1 X99.985 Y107.489 E8.07252
G1 X93.145 Y107.489 E8.69448
G1 X93.179 Y107.101 F7800.000
G1 E6.69448 F2400.000
G92 E0
G1 X98.547 Y102.341 F7800.000
G1 E2.00000 F2400.000
;TYPE:Solid infill
;WIDTH:0.723957
G1 F1800.000
G1 X97.515 Y101.308 E2.13790
G1 X96.597 Y101.308 E2.22454
G1 X98.266 Y102.977 E2.44742
G1 X98.266 Y103.895 E2.53405
G1 X95.679 Y101.308 E2.87945
G1 X94.803 Y101.308 E2.96219
G1 X94.803 Y101.349 E2.96609
G1 X98.266 Y104.812 E3.42850
G1 X98.266 Y105.730 E3.51514
G1 X94.803 Y102.267 E3.97755
G1 X94.803 Y103.184 E4.06419
G1 X97.390 Y105.771 E4.40957
G1 X96.472 Y105.771 E4.49621
G1 X94.803 Y104.102 E4.71907
G1 X94.803 Y105.019 E4.80571
G1 X95.836 Y106.052 E4.94359
;LAYER_CHANGE
;Z:0.65
;HEIGHT:0.3
G1 Z0.650 F7800.000
G1 X93.531 Y107.043
;TYPE:Perimeter
;WIDTH:0.45
G1 F900.000
G1 X93.531 Y100.036 E5.28063
G1 X99.538 Y100.036 E5.56957
G1 X99.538 Y107.043 E5.90661
G1 X93.591 Y107.043 E6.19266
G1 X93.145 Y107.429 F7800.000
G1 F900.000
G1 X93.145 Y99.650 E6.56680
G1 X99.924 Y99.650 E6.89283
G1 X99.924 Y107.429 E7.26696
G1 X93.205 Y107.429 E7.59011
G1 X92.760 Y107.814 F7800.000
;TYPE:External perimeter
G1 F900.000
G1 X92.760 Y99.264 E8.00134
G1 X100.310 Y99.264 E8.36447
G1 X100.310 Y107.814 E8.77569
G1 X92.820 Y107.814 E9.13594
G1 X92.855 Y107.426 F7800.000
G1 X94.432 Y100.151
;TYPE:Solid infill
;WIDTH:0.452659
G1 F1200.000
G1 X93.820 Y100.763 E9.17782
G1 X93.820 Y101.312 E9.20441
G1 X94.807 Y100.325 E9.27202
G1 X95.356 Y100.325 E9.29861
G1 X93.820 Y101.861 E9.40382
G1 X93.820 Y102.410 E9.43041
G1 X95.905 Y100.325 E9.57323
G1 X96.454 Y100.325 E9.59982
G1 X93.820 Y102.959 E9.78025
G1 X93.820 Y103.508 E9.80684
G1 X97.004 Y100.325 E10.02488
G1 X97.553 Y100.325 E10.05147
G1 X93.820 Y104.057 E10.30711
G1 X93.820 Y104.606 E10.33370
G1 X98.102 Y100.325 E10.62695
G1 X98.651 Y100.325 E10.65354
G1 X93.820 Y105.156 E10.98440
G1 X93.820 Y105.705 E11.01099
G1 X99.200 Y100.325 E11.37945
G1 X99.249 Y100.325 E11.38183
G1 X99.249 Y100.825 E11.40604
G1 X93.820 Y106.254 E11.77787
G1 X93.820 Y106.754 E11.80209
G1 X93.869 Y106.754 E11.80446
G1 X99.249 Y101.374 E12.17293
G1 X99.249 Y101.923 E12.19953
G1 X94.418 Y106.754 E12.53039
G1 X94.967 Y106.754 E12.55698
G1 X99.249 Y102.472 E12.85024
G1 X99.249 Y103.021 E12.87683
G1 X95.516 Y106.754 E13.13248
G1 X96.065 Y106.754 E13.15907
G1 X99.249 Y103.570 E13.37711
G1 X99.249 Y104.119 E13.40370
G1 X96.615 Y106.754 E13.58414
G1 X97.164 Y106.754 E13.61073
G1 X99.249 Y104.668 E13.75356
G1 X99.249 Y105.218 E13.78015
G1 X97.713 Y106.754 E13.88537
G1 X98.262 Y106.754 E13.91196
G1 X99.249 Y105.767 E13.97957
G1 X99.249 Y106.316 E14.00617
G1 X98.638 Y106.927 E14.04806
G1 E12.04806 F2400.000
G92 E0
G1 X87.538 Y107.043 F7800.000
G1 E2.00000 F2400.000
;TYPE:Perimeter
;WIDTH:0.45
G1 F900.000
G1 X81.531 Y107.043 E2.28894
G1 X81.531 Y100.036 E2.62598
G1 X87.538 Y100.036 E2.91492
G1 X87.538 Y106.983 E3.24907
G1 X87.924 Y107.429 F7800.000
G1 F900.000
G1 X81.145 Y107.429 E3.57511
G1 X81.145 Y99.650 E3.94924
G1 X87.924 Y99.650 E4.27528
G1 X87.924 Y107.369 E4.64652
G1 X88.310 Y107.814 F7800.000
;TYPE:External perimeter
G1 F900.000
G1 X80.760 Y107.814 E5.00965
G1 X80.760 Y99.264 E5.42088
G1 X88.310 Y99.264 E5.78401
G1 X88.310 Y107.754 E6.19235
G1 X87.925 Y107.703 F7800.000
G1 X82.432 Y100.151
;TYPE:Solid infill
;WIDTH:0.452659
G1 F1200.000
G1 X81.820 Y100.763 E6.23423
G1 X81.820 Y101.312 E6.26082
G1 X82.807 Y100.325 E6.32842
G1 X83.356 Y100.325 E6.35502
G1 X81.820 Y101.861 E6.46023
G1 X81.820 Y102.410 E6.48682
G1 X83.905 Y100.325 E6.62964
G1 X84.454 Y100.325 E6.65623
G1 X81.820 Y102.959 E6.83666
G1 X81.820 Y103.508 E6.86325
G1 X85.004 Y100.325 E7.08128
G1 X85.553 Y100.325 E7.10788
G1 X81.820 Y104.057 E7.36352
G1 X81.820 Y104.606 E7.39011
G1 X86.102 Y100.325 E7.68336
G1 X86.651 Y100.325 E7.70995
G1 X81.820 Y105.156 E8.04080
G1 X81.820 Y105.705 E8.06740
G1 X87.200 Y100.325 E8.43586
G1 X87.249 Y100.325 E8.43824
G1 X87.249 Y100.825 E8.46245
G1 X81.820 Y106.254 E8.83428
G1 X81.820 Y106.754 E8.85850
G1 X81.869 Y106.754 E8.86087
G1 X87.249 Y101.374 E9.22934
G1 X87.249 Y101.923 E9.25594
G1 X82.418 Y106.754 E9.58680
G1 X82.967 Y106.754 E9.61339
G1 X87.249 Y102.472 E9.90665
G1 X87.249 Y103.021 E9.93324
G1 X83.516 Y106.754 E10.18889
G1 X84.065 Y106.754 E10.21548
G1 X87.249 Y103.570 E10.43352
G1 X87.249 Y104.119 E10.46011
G1 X84.615 Y106.754 E10.64055
G1 X85.164 Y106.754 E10.66714
G1 X87.249 Y104.668 E10.80997
G1 X87.249 Y105.218 E10.83656
G1 X85.713 Y106.754 E10.94178
G1 X86.262 Y106.754 E10.96837
G1 X87.249 Y105.767 E11.03598
G1 X87.249 Y106.316 E11.06258
G1 X86.638 Y106.927 E11.10447
G1 E9.10447 F2400.000
G92 E0
G1 X87.538 Y117.036 F7800.000
G1 E2.00000 F2400.000
;TYPE:Perimeter
;WIDTH:0.45
G1 F3600.000
G1 X93.531 Y117.036 E2.28822
G1 X93.531 Y112.036 E2.52870
G1 X99.538 Y112.036 E2.81764
G1 X99.538 Y119.043 E3.15468
G1 X92.038 Y119.043 E3.51540
G1 X92.038 Y126.543 E3.87613
G1 X83.995 Y126.543 E4.26297
G1 X83.995 Y123.536 E4.40762
G1 X89.031 Y123.536 E4.64982
G1 X89.031 Y119.043 E4.86589
G1 X81.531 Y119.043 E5.22661
G1 X81.531 Y112.036 E5.56365
G1 X87.538 Y112.036 E5.85259
G1 X87.538 Y116.976 E6.09019
G1 X87.985 Y116.650 F7800.000
G1 F3600.000
G1 X93.145 Y116.650 E6.33840
G1 X93.145 Y111.650 E6.57888
G1 X99.924 Y111.650 E6.90492
G1 X99.924 Y119.429 E7.27905
G1 X92.424 Y119.429 E7.63977
G1 X92.424 Y126.929 E8.00050
G1 X83.610 Y126.929 E8.42443
G1 X83.610 Y123.150 E8.60618
G1 X88.645 Y123.150 E8.84837
G1 X88.645 Y119.429 E9.02735
G1 X81.145 Y119.429 E9.38807
G1 X81.145 Y111.650 E9.76221
G1 X87.924 Y111.650 E10.08824
G1 X87.925 Y116.650 E10.32872
G1 X88.310 Y116.264 F7800.000
;TYPE:External perimeter
G1 F1800.000
G1 X92.760 Y116.264 E10.54275
G1 X92.760 Y111.264 E10.78324
G1 X100.310 Y111.264 E11.14637
G1 X100.310 Y119.814 E11.55759
G1 X92.810 Y119.814 E11.91832
G1 X92.810 Y127.314 E12.27904
G1 X83.224 Y127.314 E12.74007
G1 X83.224 Y122.764 E12.95891
G1 X88.260 Y122.764 E13.20110
G1 X88.260 Y119.814 E13.34299
G1 X80.760 Y119.814 E13.70371
G1 X80.760 Y111.264 E14.11494
G1 X88.310 Y111.264 E14.47807
G1 X88.310 Y116.204 E14.71567
G1 X88.439 Y116.643 F7800.000
G1 X89.146 Y121.306
;TYPE:Solid infill
;WIDTH:0.451396
G1 F1200.000
G1 X93.128 Y117.325 E14.98744
G1 X92.580 Y117.325 E15.01386
G1 X89.320 Y120.585 E15.23643
G1 X89.320 Y120.038 E15.26285
G1 X92.033 Y117.325 E15.44805
G1 X91.486 Y117.325 E15.47447
G1 X89.320 Y119.490 E15.62231
G1 X89.320 Y118.943 E15.64873
G1 X90.938 Y117.325 E15.75921
G1 X90.391 Y117.325 E15.78563
G1 X88.962 Y118.754 E15.88319
G1 X88.415 Y118.754 E15.90961
G1 X89.844 Y117.325 E16.00717
G1 X89.296 Y117.325 E16.03359
G1 X87.867 Y118.754 E16.13115
G1 X87.320 Y118.754 E16.15757
G1 X88.749 Y117.325 E16.25513
G1 X88.202 Y117.325 E16.28155
G1 X86.773 Y118.754 E16.37911
G1 X86.225 Y118.754 E16.40553
G1 X87.654 Y117.325 E16.50309
G1 X87.249 Y117.325 E16.52265
G1 X87.249 Y117.183 E16.52951
G1 X85.678 Y118.754 E16.63676
G1 X85.131 Y118.754 E16.66318
G1 X87.249 Y116.635 E16.80780
G1 X87.249 Y116.088 E16.83422
G1 X84.583 Y118.754 E17.01620
G1 X84.036 Y118.754 E17.04262
G1 X87.249 Y115.541 E17.26196
G1 X87.249 Y114.993 E17.28838
G1 X83.489 Y118.754 E17.54509
G1 X82.941 Y118.754 E17.57151
G1 X87.249 Y114.446 E17.86558
G1 X87.249 Y113.899 E17.89200
G1 X82.394 Y118.754 E18.22343
G1 X81.847 Y118.754 E18.24985
G1 X87.249 Y113.351 E18.61865
G1 X87.249 Y112.804 E18.64507
G1 X81.820 Y118.233 E19.01569
G1 X81.820 Y117.686 E19.04210
G1 X87.181 Y112.325 E19.40809
G1 X86.634 Y112.325 E19.43451
G1 X81.820 Y117.139 E19.76313
G1 X81.820 Y116.591 E19.78955
G1 X86.087 Y112.325 E20.08081
G1 X85.539 Y112.325 E20.10723
G1 X81.820 Y116.044 E20.36112
G1 X81.820 Y115.497 E20.38754
G1 X84.992 Y112.325 E20.60407
G1 X84.445 Y112.325 E20.63049
G1 X81.820 Y114.949 E20.80966
G1 X81.820 Y114.402 E20.83608
G1 X83.897 Y112.325 E20.97789
G1 X83.350 Y112.325 E21.00430
G1 X81.820 Y113.855 E21.10875
G1 X81.820 Y113.307 E21.13517
G1 X82.803 Y112.325 E21.20225
G1 X82.255 Y112.325 E21.22867
G1 X81.646 Y112.934 E21.27023
G1 E19.27023 F2400.000
G92 E0
G1 X84.612 Y123.651 F7800.000
G1 E2.00000 F2400.000
G1 F1200.000
G1 X84.284 Y123.979 E2.02235
G1 X84.284 Y124.526 E2.04877
G1 X84.986 Y123.825 E2.09664
G1 X85.533 Y123.825 E2.12306
G1 X84.284 Y125.073 E2.20829
G1 X84.284 Y125.621 E2.23471
G1 X86.080 Y123.825 E2.35731
G1 X86.628 Y123.825 E2.38373
G1 X84.284 Y126.168 E2.54368
G1 X84.284 Y126.254 E2.54783
G1 X84.746 Y126.254 E2.57010
G1 X87.175 Y123.825 E2.73593
G1 X87.722 Y123.825 E2.76235
G1 X85.293 Y126.254 E2.92817
G1 X85.840 Y126.254 E2.95459
G1 X88.270 Y123.825 E3.12042
G1 X88.817 Y123.825 E3.14684
G1 X86.214 Y126.427 E3.32451
G1 X91.140 Y126.427 F7800.000
G1 F1200.000
G1 X91.749 Y125.818 E3.36608
G1 X91.749 Y125.271 E3.39250
G1 X90.766 Y126.254 E3.45959
G1 X90.219 Y126.254 E3.48601
G1 X91.749 Y124.724 E3.59046
G1 X91.749 Y124.176 E3.61688
G1 X89.672 Y126.254 E3.75869
G1 X89.124 Y126.254 E3.78511
G1 X91.749 Y123.629 E3.96429
G1 X91.749 Y123.082 E3.99071
G1 X88.577 Y126.254 E4.20724
G1 X88.030 Y126.254 E4.23366
G1 X91.749 Y122.535 E4.48757
G1 X91.749 Y121.987 E4.51399
G1 X87.482 Y126.254 E4.80525
G1 X86.935 Y126.254 E4.83167
G1 X91.749 Y121.440 E5.16030
G1 X91.749 Y120.893 E5.18672
G1 X89.320 Y123.322 E5.35254
G1 X89.320 Y122.774 E5.37896
G1 X91.749 Y120.345 E5.54479
G1 X91.749 Y119.798 E5.57121
G1 X89.320 Y122.227 E5.73703
G1 X89.320 Y121.680 E5.76345
