; generated by PrusaSlicer 2.3.1 on 2021-04-21 at 18:30:35 UTC

; 

; external perimeters extrusion width = 0.45mm
; perimeters extrusion width = 0.45mm
; infill extrusion width = 0.45mm
; solid infill extrusion width = 0.45mm
; top infill extrusion width = 0.40mm
; first layer extrusion width = 0.42mm

M107
M104 S200 ; set temperature
;TYPE:Custom
G28 ; home all axes
G1 Z5 F5000 ; lift nozzle
M109 S200 ; set temperature and wait for it to be reached
G21 ; set units to millimeters
G90 ; use absolute coordinates
M82 ; use absolute distances for extrusion
G92 E0
; Filament gcode
;LAYER_CHANGE
;Z:0.25
;HEIGHT:0.25
G1 Z0.250 F7800.000
G1 E-2.00000 F2400.000
G92 E0
G1 X90.363 Y90.638 F7800.000
G1 E2.00000 F2400.000
;TYPE:Skirt
;WIDTH:0.42
G1 F1800.000
G1 X91.357 Y89.779 E2.04999
G1 X92.511 Y89.140 E2.10022
G1 X93.766 Y88.754 E2.15022
G1 X94.930 Y88.634 E2.19478
G1 X105.006 Y88.634 E2.57846
G1 X106.036 Y88.719 E2.61782
G1 X107.039 Y88.969 E2.65718
G1 X107.988 Y89.379 E2.69654
G1 X108.863 Y89.940 E2.73613
G1 X109.631 Y90.632 E2.77549
G1 X110.277 Y91.439 E2.81485
G1 X110.784 Y92.340 E2.85421
G1 X111.138 Y93.311 E2.89357
G1 X111.365 Y94.886 E2.95417
G1 X111.359 Y105.299 E3.35067
G1 X111.086 Y106.867 E3.41127
G1 X110.433 Y108.318 E3.47188
G1 X109.546 Y109.457 E3.52683
G1 X108.420 Y110.370 E3.58201
G1 X107.117 Y111.004 E3.63720
G1 X105.711 Y111.327 E3.69215
G1 X94.595 Y111.353 E4.11541
G1 X93.079 Y111.070 E4.17413
G1 X91.682 Y110.433 E4.23261
G1 X90.543 Y109.546 E4.28756
G1 X89.630 Y108.420 E4.34275
G1 X88.996 Y107.117 E4.39793
G1 X88.673 Y105.711 E4.45288
G1 X88.647 Y94.595 E4.87614
G1 X88.930 Y93.079 E4.93486
G1 X89.567 Y91.682 E4.99334
G1 X90.327 Y90.685 E5.04105
G1 E3.04105 F2400.000
G92 E0
G1 X96.143 Y96.143 F7800.000
G1 E2.00000 F2400.000
;TYPE:Perimeter
G1 F1800.000
G1 X103.857 Y96.143 E2.29375
G1 X103.857 Y103.857 E2.58751
G1 X96.143 Y103.857 E2.88126
G1 X96.143 Y96.203 E3.17273
G1 X95.776 Y95.776 F7800.000
G1 F1800.000
G1 X104.224 Y95.776 E3.49438
G1 X104.224 Y104.224 E3.81604
G1 X95.776 Y104.224 E4.13769
G1 X95.776 Y95.836 E4.45706
G1 X95.410 Y95.410 F7800.000
;TYPE:External perimeter
G1 F1800.000
G1 X104.590 Y95.410 E4.80661
G1 X104.590 Y104.590 E5.15616
G1 X95.410 Y104.590 E5.50572
G1 X95.410 Y95.470 E5.85298
G1 X95.796 Y95.514 F7800.000
G1 E3.85298 F2400.000
G92 E0
G1 X103.747 Y96.995 F7800.000
G1 E2.00000 F2400.000
;TYPE:Solid infill
;WIDTH:0.420928
G1 F1800.000
G1 X103.170 Y96.417 E2.03119
G1 X102.650 Y96.417 E2.05102
G1 X103.583 Y97.350 E2.10134
G1 X103.583 Y97.869 E2.12117
G1 X102.131 Y96.417 E2.19954
G1 X101.611 Y96.417 E2.21937
G1 X103.583 Y98.389 E2.32578
G1 X103.583 Y98.908 E2.34561
G1 X101.092 Y96.417 E2.48006
G1 X100.573 Y96.417 E2.49989
G1 X103.583 Y99.427 E2.66238
G1 X103.583 Y99.947 E2.68221
G1 X100.053 Y96.417 E2.87274
G1 X99.534 Y96.417 E2.89257
G1 X103.583 Y100.466 E3.11115
G1 X103.583 Y100.986 E3.13097
G1 X99.014 Y96.417 E3.37759
G1 X98.495 Y96.417 E3.39742
G1 X103.583 Y101.505 E3.67207
G1 X103.583 Y102.024 E3.69190
G1 X97.976 Y96.417 E3.99460
G1 X97.456 Y96.417 E4.01443
G1 X103.583 Y102.544 E4.34517
G1 X103.583 Y103.063 E4.36499
G1 X96.937 Y96.417 E4.72377
G1 X96.417 Y96.417 E4.74360
G1 X103.582 Y103.583 E5.13042
G1 X103.063 Y103.583 E5.15024
G1 X96.417 Y96.937 E5.50902
G1 X96.417 Y97.456 E5.52885
G1 X102.544 Y103.583 E5.85958
G1 X102.024 Y103.583 E5.87941
G1 X96.417 Y97.976 E6.18210
G1 X96.417 Y98.495 E6.20193
G1 X101.505 Y103.583 E6.47658
G1 X100.985 Y103.583 E6.49640
G1 X96.417 Y99.015 E6.74301
G1 X96.417 Y99.534 E6.76284
G1 X100.466 Y103.583 E6.98141
G1 X99.947 Y103.583 E7.00124
G1 X96.417 Y100.053 E7.19177
G1 X96.417 Y100.573 E7.21159
G1 X99.427 Y103.583 E7.37408
G1 X98.908 Y103.583 E7.39391
G1 X96.417 Y101.092 E7.52835
G1 X96.417 Y101.612 E7.54818
G1 X98.388 Y103.583 E7.65459
G1 X97.869 Y103.583 E7.67441
G1 X96.417 Y102.131 E7.75278
G1 X96.417 Y102.650 E7.77261
G1 X97.350 Y103.583 E7.82293
G1 X96.830 Y103.583 E7.84276
G1 X96.253 Y103.005 E7.87394
G1 E5.87394 F2400.000
G92 E0
;TYPE:Custom
; Filament-specific end gcode 
;END gcode for filament
M104 S0 ; turn off temperature
G28 X0  ; home X axis
M84     ; disable motors
; filament used [mm] = 12.77
; filament used [cm3] = 0.03
; total filament used [g] = 0.00
; total filament cost = 0.00
; estimated printing time (normal mode) = 14s
; estimated printing time (silent mode) = 14s

; avoid_crossing_perimeters = 0
; avoid_crossing_perimeters_max_detour = 0
; bed_custom_model = 
; bed_custom_texture = 
; bed_shape = 0x0,200x0,200x200,0x200
; bed_temperature = 0
; before_layer_gcode = 
; between_objects_gcode = 
; bottom_fill_pattern = monotonic
; bottom_solid_layers = 3
; bottom_solid_min_thickness = 0
; bridge_acceleration = 0
; bridge_angle = 0
; bridge_fan_speed = 100
; bridge_flow_ratio = 1
; bridge_speed = 60
; brim_width = 0
; clip_multipart_objects = 1
; color_change_gcode = M600
; complete_objects = 0
; cooling = 1
; cooling_tube_length = 5
; cooling_tube_retraction = 91.5
; default_acceleration = 0
; default_filament_profile = 
; default_print_profile = 
; deretract_speed = 0
; disable_fan_first_layers = 3
; dont_support_bridges = 1
; draft_shield = 0
; duplicate_distance = 6
; elefant_foot_compensation = 0.2
; end_filament_gcode = "; Filament-specific end gcode \n;END gcode for filament\n"
; end_gcode = M104 S0 ; turn off temperature\nG28 X0  ; home X axis\nM84     ; disable motors\n
; ensure_vertical_shell_thickness = 0
; external_perimeter_extrusion_width = 0.45
; external_perimeter_speed = 50%
; external_perimeters_first = 0
; extra_loading_move = -2
; extra_perimeters = 1
; extruder_clearance_height = 20
; extruder_clearance_radius = 20
; extruder_colour = ""
; extruder_offset = 0x0
; extrusion_axis = E
; extrusion_multiplier = 1
; extrusion_width = 0.45
; fan_always_on = 0
; fan_below_layer_time = 60
; filament_colour = #29B2B2
; filament_cooling_final_speed = 3.4
; filament_cooling_initial_speed = 2.2
; filament_cooling_moves = 4
; filament_cost = 0
; filament_density = 0
; filament_diameter = 1.75
; filament_load_time = 0
; filament_loading_speed = 28
; filament_loading_speed_start = 3
; filament_max_volumetric_speed = 0
; filament_minimal_purge_on_wipe_tower = 15
; filament_notes = ""
; filament_ramming_parameters = "120 100 6.6 6.8 7.2 7.6 7.9 8.2 8.7 9.4 9.9 10.0| 0.05 6.6 0.45 6.8 0.95 7.8 1.45 8.3 1.95 9.7 2.45 10 2.95 7.6 3.45 7.6 3.95 7.6 4.45 7.6 4.95 7.6"
; filament_settings_id = Denso-VS050
; filament_soluble = 0
; filament_spool_weight = 0
; filament_toolchange_delay = 0
; filament_type = PLA
; filament_unload_time = 0
; filament_unloading_speed = 90
; filament_unloading_speed_start = 100
; filament_vendor = (Unknown)
; fill_angle = 45
; fill_density = 20%
; fill_pattern = stars
; first_layer_acceleration = 0
; first_layer_bed_temperature = 0
; first_layer_extrusion_width = 0.42
; first_layer_height = 0.25
; first_layer_speed = 30
; first_layer_temperature = 200
; full_fan_speed_layer = 0
; gap_fill_speed = 20
; gcode_comments = 0
; gcode_flavor = marlin
; gcode_label_objects = 0
; high_current_on_filament_swap = 0
; host_type = octoprint
; infill_acceleration = 0
; infill_anchor = 600%
; infill_anchor_max = 50
; infill_every_layers = 1
; infill_extruder = 1
; infill_extrusion_width = 0.45
; infill_first = 0
; infill_only_where_needed = 0
; infill_overlap = 25%
; infill_speed = 80
; interface_shells = 0
; ironing = 0
; ironing_flowrate = 15%
; ironing_spacing = 0.1
; ironing_speed = 15
; ironing_type = top
; layer_gcode = 
; layer_height = 0.2
; machine_limits_usage = ignore
; machine_max_acceleration_e = 10000,5000
; machine_max_acceleration_extruding = 1500,1250
; machine_max_acceleration_retracting = 1500,1250
; machine_max_acceleration_x = 9000,1000
; machine_max_acceleration_y = 9000,1000
; machine_max_acceleration_z = 500,200
; machine_max_feedrate_e = 120,120
; machine_max_feedrate_x = 500,200
; machine_max_feedrate_y = 500,200
; machine_max_feedrate_z = 12,12
; machine_max_jerk_e = 2.5,2.5
; machine_max_jerk_x = 10,10
; machine_max_jerk_y = 10,10
; machine_max_jerk_z = 0.2,0.4
; machine_min_extruding_rate = 0,0
; machine_min_travel_rate = 0,0
; max_fan_speed = 100
; max_layer_height = 0
; max_print_height = 200
; max_print_speed = 80
; max_volumetric_speed = 0
; min_fan_speed = 35
; min_layer_height = 0.07
; min_print_speed = 10
; min_skirt_length = 0
; notes = 
; nozzle_diameter = 0.4
; only_retract_when_crossing_perimeters = 1
; ooze_prevention = 0
; output_filename_format = [input_filename_base].gcode
; overhangs = 1
; parking_pos_retraction = 92
; pause_print_gcode = M601
; perimeter_acceleration = 0
; perimeter_extruder = 1
; perimeter_extrusion_width = 0.45
; perimeter_speed = 60
; perimeters = 3
; physical_printer_settings_id = 
; post_process = 
; print_settings_id = Denso-VS050
; printer_model = 
; printer_notes = 
; printer_settings_id = Denso-VS050
; printer_technology = FFF
; printer_variant = 
; printer_vendor = 
; raft_layers = 0
; remaining_times = 0
; resolution = 0
; retract_before_travel = 2
; retract_before_wipe = 0%
; retract_layer_change = 0
; retract_length = 2
; retract_length_toolchange = 10
; retract_lift = 0
; retract_lift_above = 0
; retract_lift_below = 0
; retract_restart_extra = 0
; retract_restart_extra_toolchange = 0
; retract_speed = 40
; seam_position = aligned
; silent_mode = 1
; single_extruder_multi_material = 0
; single_extruder_multi_material_priming = 1
; skirt_distance = 6
; skirt_height = 1
; skirts = 1
; slice_closing_radius = 0.049
; slowdown_below_layer_time = 5
; small_perimeter_speed = 15
; solid_infill_below_area = 70
; solid_infill_every_layers = 0
; solid_infill_extruder = 1
; solid_infill_extrusion_width = 0.45
; solid_infill_speed = 20
; spiral_vase = 0
; standby_temperature_delta = -5
; start_filament_gcode = "; Filament gcode\n"
; start_gcode = G28 ; home all axes\nG1 Z5 F5000 ; lift nozzle\n
; support_material = 0
; support_material_angle = 0
; support_material_auto = 1
; support_material_buildplate_only = 0
; support_material_contact_distance = 0.2
; support_material_enforce_layers = 0
; support_material_extruder = 1
; support_material_extrusion_width = 0.35
; support_material_interface_contact_loops = 0
; support_material_interface_extruder = 1
; support_material_interface_layers = 3
; support_material_interface_spacing = 0
; support_material_interface_speed = 100%
; support_material_pattern = rectilinear
; support_material_spacing = 2.5
; support_material_speed = 60
; support_material_synchronize_layers = 0
; support_material_threshold = 0
; support_material_with_sheath = 1
; support_material_xy_spacing = 50%
; temperature = 200
; template_custom_gcode = 
; thin_walls = 1
; threads = 8
; thumbnails = 
; toolchange_gcode = 
; top_fill_pattern = monotonic
; top_infill_extrusion_width = 0.4
; top_solid_infill_speed = 15
; top_solid_layers = 3
; top_solid_min_thickness = 0
; travel_speed = 130
; use_firmware_retraction = 0
; use_relative_e_distances = 0
; use_volumetric_e = 0
; variable_layer_height = 1
; wipe = 0
; wipe_into_infill = 0
; wipe_into_objects = 0
; wipe_tower = 0
; wipe_tower_bridging = 10
; wipe_tower_no_sparse_layers = 0
; wipe_tower_rotation_angle = 0
; wipe_tower_width = 60
; wipe_tower_x = 180
; wipe_tower_y = 140
; wiping_volumes_extruders = 70,70
; wiping_volumes_matrix = 0
; xy_size_compensation = 0
; z_offset = 0
